icon-themes/breeze_svg/cmd/32/animationobjects.svg

<svg viewBox="0 0 32 32" xmlns="http://www.w3.org/2000/svg"><path d="m16 4-4.5 9h-7.5l2 2 4 4-1.5 9 7.5-5 7.5 5-1.5-9 4-4 2-2h-7.5zm3 0v1h9v-1zm-3 2.2363281 3.880859 7.7636719h.001953 5.703126l-1 1-3.65625 3.65625 1.228515 7.371094-6.158203-4.027344-6.1582031 4.027344 1.2285151-7.371094-3.6562495-3.65625-1-1h5.7031255.001953zm4 .7636719v1h8v-1zm3 3v1h5v-1zm1 8v1h4v-1zm0 3v1h4v-1zm1 3v1h3v-1zm0 3v1h3v-1z" fill="#4d4d4d"/></svg>

<svg xmlns="http://www.w3.org/2000/svg" viewBox="0 0 32 32">
 <path 
     style="fill:#4d4d4d" 
     d="M 16 4 L 11.5 13 L 4 13 L 6 15 L 10 19 L 8.5 28 L 16 23 L 23.5 28 L 22 19 L 26 15 L 28 13 L 20.5 13 L 16 4 z M 19 4 L 19 5 L 28 5 L 28 4 L 19 4 z M 16 6.2363281 L 19.880859 14 L 19.882812 14 L 25.585938 14 L 24.585938 15 L 20.929688 18.65625 L 22.158203 26.027344 L 16 22 L 9.8417969 26.027344 L 11.070312 18.65625 L 7.4140625 15 L 6.4140625 14 L 12.117188 14 L 12.119141 14 L 16 6.2363281 z M 20 7 L 20 8 L 28 8 L 28 7 L 20 7 z M 23 10 L 23 11 L 28 11 L 28 10 L 23 10 z M 24 18 L 24 19 L 28 19 L 28 18 L 24 18 z M 24 21 L 24 22 L 28 22 L 28 21 L 24 21 z M 25 24 L 25 25 L 28 25 L 28 24 L 25 24 z M 25 27 L 25 28 L 28 28 L 28 27 L 25 27 z "
     />
</svg>
